!!!COM: Schiørring, Niels
!!!CDT: 1743-1798
!!!OPR@@DA: Choral-Bog
!!!ONM: 14
!!!OTL@@DA: Du høye Fryd for reene Siele
**kern	**fb	**kern	**kern	**kern	**kern	**kern	**kern	**kern
*part6	*part6	*part6	*part5	*part5	*part4	*part3	*part2	*part1
*staff8	*	*staff7	*staff6	*staff5	*staff4	*staff3	*staff2	*staff1
*clefF4	*	*clefC1	*clefF4	*clefC1	*clefF4	*clefC4	*clefC3	*clefC1
*mclefF4	*	*mclefG2	*mclefF4	*mclefG2	*mclefF4	*mclefGv2	*mclefG2	*mclefG2
*k[f#]	*	*k[f#]	*k[f#]	*k[f#]	*k[f#]	*k[f#]	*k[f#]	*k[f#]
*G:	*	*G:	*G:	*G:	*G:	*G:	*G:	*G:
*M4/4	*	*M4/4	*M4/4	*M4/4	*M4/4	*M4/4	*M4/4	*M4/4
*met(c)	*	*met(c)	*met(c)	*met(c)	*met(c)	*met(c)	*met(c)	*met(c)
*MM180	*	*MM180	*MM180	*MM180	*MM180	*MM180	*MM180	*MM180
*	*above	*	*	*	*	*	*	*
*	*slash	*	*	*	*	*	*	*
*	*	*	*^	*^	*	*	*	*
=1	=1	=1	=1	=1	=1	=1	=1	=1	=1	=1
2G	.	2d	2B	2G	2d	2d	2G	2B	2d	2d
=2	=2	=2	=2	=2	=2	=2	=2	=2	=2	=2
2E	.	2g	2B	2E	2g	2e	2E	2B	2e	2g
2D	.	2a	2d	2D	2a	2f#	2D	2d	2f#	2a
=3	=3	=3	=3	=3	=3	=3	=3	=3	=3	=3
2G	.	2b	2d	2G	2b	2g	2G	2d	2g	2b
4B	6	2g	4d	4B	2g	2g	(4B	(4d	2g	2g
4G	.	.	4B	4G	.	.	4G)	4B)	.	.
=4	=4	=4	=4	=4	=4	=4	=4	=4	=4	=4
2F#	6	2dd	2A	2F#	2dd	2a	2F#	2A	2a	2dd
2D	.	2dd	2A	2D	2dd	2f#	2D	2A	2f#	2dd
=5	=5	=5	=5	=5	=5	=5	=5	=5	=5	=5
2G	.	2b	2G	2G	2b	2d	2G	2G	2d	2b
2GG	.	2g	2ryy	2GG	2B	2d	2GG	2B	2d	2g
=6	=6	=6	=6	=6	=6	=6	=6	=6	=6	=6
2r	.	2r	2r	2r	2r	2r	2r	2r	2r	2r
2GG	.	2b	[2G	2GG	2b	2d	2GG	2d	[2g	2b
=7	=7	=7	=7	=7	=7	=7	=7	=7	=7	=7
2D	4	2a	4G]	2D	2a	2d	2D	2d	(4g]	2a
.	3	.	4F#	.	.	.	.	.	4f#)	.
2F#	6	2dd	2A	2F#	2dd	2d	2F#	2d	2a	2dd
=8	=8	=8	=8	=8	=8	=8	=8	=8	=8	=8
2G	.	2b	2B	2G	2b	2d	2G	2d	2g	2b
2E	.	2ee	2B	2E	2ee	2g	2E	2g	2b	2ee
=9	=9	=9	=9	=9	=9	=9	=9	=9	=9	=9
2A	6 4	2dd	[2A	2A	2dd	2f#	2A	2f#	2a	2dd
2AA	5 #	2cc#X	2A]	2AA	2cc#X	2e	2AA	2e	2a	2cc#X
=10	=10	=10	=10	=10	=10	=10	=10	=10	=10	=10
2D	.	2dd	2A	2D	2dd	2f#	2D	2f#	2a	2dd
=11:|!	=11:|!	=11:|!	=11:|!	=11:|!	=11:|!	=11:|!	=11:|!	=11:|!	=11:|!	=11:|!
*	*	*	*	*	*	*^	*	*	*	*
2D	.	2a	2A	2D	2a	2d	2f#/	2D	2d	2f#	2a
=12	=12	=12	=12	=12	=12	=12	=12	=12	=12	=12	=12
2C#X	6	2a	2A	2C#X	2a	2e	2e/	2C#X	2e	2e	2a
2GG	#	2a	2A	2GG	2a	2c#X	2e/	2GG	2c#X	2e	2a
=13	=13	=13	=13	=13	=13	=13	=13	=13	=13	=13	=13
2D	.	2f#	2A	2D	2f#	2d	1r	2D	2A	2d	2f#
2Cni	2	2d	2F#	2Cni	2d	2A	.	2Cni	(4F#	2A	2d
.	.	.	.	.	.	.	.	.	4A)	.	.
=14	=14	=14	=14	=14	=14	=14	=14	=14	=14	=14	=14
2BB	6	2g	4D	2BB	2g	2d	1r	2BB	[2G	2d	2g
.	.	.	2G	.	.	.	.	.	.	.	.
2AA	7	2a	.	2AA	2a	2c	.	2AA	(4G]	2c	2a
.	6	.	4F#	.	.	.	.	.	4F#)	.	.
=15	=15	=15	=15	=15	=15	=15	=15	=15	=15	=15	=15
2GG	.	2b	2G	2GG	2b	2d	1r	2GG	2G	2d	2b
2GG	.	2g	2ryy	2GG	2B	2d	.	2GG	2B	2d	2g
=16	=16	=16	=16	=16	=16	=16	=16	=16	=16	=16	=16
2r	.	2r	2r	2r	2r	2r	1r	2r	2r	2r	2r
2G	.	2b	2ryy	2G	2d	[2g	.	2G	2d	[2g	2b
=17	=17	=17	=17	=17	=17	=17	=17	=17	=17	=17	=17
2C#X	5	2a	2ryy	2C#X	2e	2g]	1r	2C#X	2e	2g]	2a
2D#X	6	2b	2B	2D#X	2b	2f#	.	2D#X	2B	2f#	2b
=18	=18	=18	=18	=18	=18	=18	=18	=18	=18	=18	=18
2E	5	2g	4B	2E	2g	2e	1r	2E	(4B	2e	2g
.	#6\	.	4c#X	.	.	.	.	.	4c#X)	.	.
4F#	6	2f#	4A	4F#	2f#	2dni	.	(4F#	(4A	[2d	2f#
4G	.	.	4B	4G	.	.	.	4G)	4B)	.	.
=19	=19	=19	=19	=19	=19	=19	=19	=19	=19	=19	=19
2A	6 4	2f#	2A	2A	2f#	2d	1r	2A	2A	2d]	2f#
2AA	5 #	2e	2G	2AA	2e	2c#X	.	2AA	2G	2c#X	2e
=20	=20	=20	=20	=20	=20	=20	=20	=20	=20	=20	=20
2D	.	2d	2F#	2D	2d	2A	1r	2D	2F#	2d	2d
2BB	.	2d	2F#	2BB	2d	2B	.	2BB	2F#	2d	2d
=21	=21	=21	=21	=21	=21	=21	=21	=21	=21	=21	=21
2E	.	2g	2G	2E	2g	2B	1r	2E	2G	2B	2g
2D	.	2a	2d	2D	2a	2f#	.	2D	2F#	2d	2a
=22	=22	=22	=22	=22	=22	=22	=22	=22	=22	=22	=22
2G	.	2b	2d	2G	2b	2g	1r	2G	2G	2d	2b
4B	6	2g	4d	4B	2g	2g	.	(4B	(4d	2d	2g
4G	.	.	4B	4G	.	.	.	4G)	4B)	.	.
=23	=23	=23	=23	=23	=23	=23	=23	=23	=23	=23	=23
2F#	6	2dd	2A	2F#	2dd	2a	1r	2F#	2A	2d	2dd
2D	.	2dd	2A	2D	2dd	2f#	.	2D	2A	2f#	2dd
=24	=24	=24	=24	=24	=24	=24	=24	=24	=24	=24	=24
2G	.	2b	2G	2G	2b	2d	1r	2G	2G	2d	2b
2GG	.	2g	2ryy	2GG	2B	2d	.	2GG	2B	2d	2g
=25	=25	=25	=25	=25	=25	=25	=25	=25	=25	=25	=25
2r	.	2r	2r	2r	2r	2r	1r	2r	2r	2r	2r
2BB	6	2dd	2B	2BB	2dd	2g	.	2BB	2G	2d	2dd
=26	=26	=26	=26	=26	=26	=26	=26	=26	=26	=26	=26
2E	.	2g	2B	2E	2g	2e	1r	2E	2B	2e	2g
2AA	.	2cc	2A	2AA	2cc	2e	.	2AA	2c	2e	2cc
=27	=27	=27	=27	=27	=27	=27	=27	=27	=27	=27	=27
2D	.	2f#	2A	2D	2f#	2d	1r	2D	2A	2d	2f#
4BB	6	2g	[2G	4BB	2g	4d	.	(4BB	2G	(4d	2g
4C	.	.	.	4C	.	4e	.	4C)	.	4e)	.
=28	=28	=28	=28	=28	=28	=28	=28	=28	=28	=28	=28
*	*	*	*	*	*	*	*	*^	*	*	*
2D	6 4	2b	2G]	1D	2b	1d	1r	2D	2D	2G	2d	2b
2DD	5 3	2a	2F#	.	2a	.	.	2D	2DD	2F#	2c	2a
*	*	*	*	*	*	*	*	*v	*v	*	*	*
=29	=29	=29	=29	=29	=29	=29	=29	=29	=29	=29	=29
2GG	.	2g	2G	2GG	2g	2B	2d/	2GG	2G	2B	2g
*	*	*	*v	*v	*	*	*	*	*	*	*
*	*	*	*	*v	*v	*v	*	*	*	*
==	==	==	==	==	==	==	==	==
*-	*-	*-	*-	*-	*-	*-	*-	*-
!!!system-decoration: {(s1,s2,s3,s4)}{(s5,s6)}{(s7,s8)}
!!!RDF**kern: i = editorial accidental
!!!RDF**kern: > = above
!!!RDF**kern: < = below
!!!AGN: chorale
!!!EED: Derek Remeš
!!!EED2: Victor Phan
!!!END: 2023/11/28
!!!ENC: Wolfgang Drescher
!!!EEV: 2023/12/11
!!!title: @{ONM}. @{OTL}
!!!verovio: mnumInterval 1